img/icon-calendar.svg

<svg width="24" height="24" fill="none" xmlns="http://www.w3.org/2000/svg"><path opacity=".3" d="M5 5h14v2H5V5Z" fill="#fff"/><path d="M19 3h-1V1h-2v2H8V1H6v2H5c-1.1 0-2 .9-2 2v14c0 1.1.9 2 2 2h14c1.1 0 2-.9 2-2V5c0-1.1-.9-2-2-2Zm0 16H5V9h14v10Zm0-12H5V5h14v2ZM7 11h10v2H7v-2Zm0 4h7v2H7v-2Z" fill="#fff"/></svg>

<svg width="24" height="24" viewBox="0 0 24 24" fill="none" xmlns="http://www.w3.org/2000/svg">
<path opacity="0.3" d="M5 5H19V7H5V5Z" fill="white"/>
<path d="M19 3H18V1H16V3H8V1H6V3H5C3.9 3 3 3.9 3 5V19C3 20.1 3.9 21 5 21H19C20.1 21 21 20.1 21 19V5C21 3.9 20.1 3 19 3ZM19 19H5V9H19V19ZM19 7H5V5H19V7ZM7 11H17V13H7V11ZM7 15H14V17H7V15Z" fill="white"/>
</svg>
